X: 9622
T: Dawn, The
R: reel
M: 4/4
K: Amajor
|:A,2CE D2FA|E2GB A2cA|BEcE dEcE|BAGF EDCB,|
A,2CE D2FA|E2GB A2ce|fefg agae|1 ecdBA2 A z:|2 ecdBA2 (3efg||
|:a2 ga fece|b2 bg agfe|gebe gbeg|fe^df e2 (3efg|
a2 ga fece|fgag fece|fAgA afed|1 cABG A2 (3efg:|2 ecdBA2 Az||

